src/main/resources/icons/PhpstormRemoteInterpreterIcons/icons/remotePHP_interpreter.svg

<svg xmlns="http://www.w3.org/2000/svg" width="16" height="16" viewBox="0 0 16 16">
  <g fill="none" fill-rule="evenodd">
    <path fill="#B99BF8" fill-opacity=".7" d="M13,13 L10,13 L10,9 L16,9 L16,13 L13,13 L0,13 L0,3 L16,3 L16,13 L13,13 Z"/>
    <path fill="#231F20" fill-opacity=".7" d="M14.575017,9 L11,9 L11,6 L12.971,6 C14.142,6 15,6.642 15,7.65 C15,8.29815281 14.8384544,8.72311598 14.575017,9 Z M12.9,8.5 C13.564,8.5 14,8.38439941 14,7.75 C14,7.11560059 13.557,7 12.9,7 L12,7 L12,8.5 L12.9,8.5 Z"/>
    <path fill="#231F20" fill-opacity=".7" d="M1.9,2.5 C2.564,2.5 3,2.38439941 3,1.75 C3,1.11560059 2.557,1 1.9,1 L1,1 L1,2.5 L1.9,2.5 Z M0,0 L1.971,0 C3.142,0 4,0.642 4,1.65 C4,3.28582764 2.971,3.5 1.872,3.5 L1,3.5 L1,5 L0,5 L0,0 Z" transform="translate(1 6)"/>
    <polygon fill="#231F20" fill-opacity=".7" points="0 0 1 0 1 2 3 2 3 0 4 0 4 5 3 5 3 3 1 3 1 5 0 5" transform="translate(6 6)"/>
    <path fill="#9AA7B0" d="M11,16 L11,10 L13.6832001,10 C14.4400002,10 15.0334002,10.2035997 15.4204002,10.5819998 C15.7386002,10.9087998 16,11.3554001 16,11.8800001 C16,12.8862002 15.3258002,13.4801999 14.4916002,13.7209999 L16.1170002,16 L14.8614002,16 L13.3822001,14 L12,14 L12,16 L11,16 Z M12,13 L13.6058001,13 C14.3626001,13 15,12.5685998 15,11.9579998 L15,11.9407998 C15,11.2957998 14.3798001,11 13.5972001,11 L12,11 L12,13 Z"/>
  </g>
</svg>

<svg xmlns="http://www.w3.org/2000/svg" width="16" height="16" viewBox="0 0 16 16"><rect id="frame" width="16" height="16" fill="none"/><g fill="none" fill-rule="evenodd"><path fill="#B99BF8" fill-opacity=".7" d="M13 13h-3V9h6v4H0V3h16v10h-3z"/><path fill="#231F20" fill-opacity=".7" d="M14.575 9H11V6h1.971C14.142 6 15 6.642 15 7.65c0 .648-.162 1.073-.425 1.35zM12.9 8.5c.664 0 1.1-.116 1.1-.75S13.557 7 12.9 7H12v1.5h.9z"/><path fill="#231F20" fill-opacity=".7" d="M2.9 8.5c.664 0 1.1-.116 1.1-.75S3.557 7 2.9 7H2v1.5h.9zM1 6h1.971C4.142 6 5 6.642 5 7.65 5 9.286 3.971 9.5 2.872 9.5H2V11H1V6z"/><path fill="#231F20" fill-opacity=".7" d="M6 6h1v2h2V6h1v5H9V9H7v2H6z"/><path fill="#9AA7B0" d="M11 16v-6h2.683c.757 0 1.35.204 1.737.582.319.327.58.773.58 1.298 0 1.006-.674 1.6-1.508 1.841L16.117 16h-1.256l-1.479-2H12v2h-1zm1-3h1.606c.757 0 1.394-.431 1.394-1.042v-.017c0-.645-.62-.941-1.403-.941H12v2z"/></g></svg>
